src/assets/spotify.svg

<svg width="83" height="25" viewBox="0 0 83 25" fill="none" xmlns="http://www.w3.org/2000/svg">
<path d="M12.4469 0C5.57281 0 0 5.5964 0 12.4998C0 19.4039 5.57281 25 12.4469 25C19.3213 25 24.8938 19.4039 24.8938 12.4998C24.8938 5.59684 19.3217 0 12.4469 0ZM18.155 18.0283C17.9314 18.3965 17.4537 18.5119 17.0882 18.2875C14.1654 16.4935 10.4864 16.0883 6.1538 17.0822C5.7363 17.1784 5.32013 16.9155 5.22501 16.4963C5.12944 16.0771 5.38998 15.6591 5.80853 15.5636C10.5499 14.475 14.6169 14.9435 17.8977 16.9568C18.2633 17.1822 18.3794 17.6611 18.155 18.0283ZM19.6784 14.6252C19.3969 15.0839 18.7997 15.2278 18.3436 14.9461C14.9986 12.8812 9.89799 12.283 5.94067 13.4894C5.42744 13.6451 4.88538 13.3546 4.72962 12.8401C4.57504 12.3247 4.86443 11.7814 5.37676 11.6246C9.89711 10.2472 15.5166 10.9144 19.3587 13.2855C19.815 13.5676 19.9593 14.1675 19.6784 14.6252ZM19.8092 11.081C15.797 8.68814 9.17905 8.46812 5.34895 9.63552C4.73392 9.82284 4.08351 9.47416 3.89712 8.8565C3.71074 8.23855 4.05764 7.58581 4.67313 7.39803C9.06981 6.05763 16.3788 6.3166 20.9974 9.0701C21.5506 9.39983 21.7321 10.1173 21.4042 10.6722C21.0772 11.2277 20.3606 11.4109 19.8092 11.081ZM33.8639 11.5396C31.7148 11.0249 31.3322 10.6637 31.3322 9.90464C31.3322 9.18758 32.0045 8.70501 33.0042 8.70501C33.9733 8.70501 34.9342 9.07145 35.9416 9.82584C35.9721 9.84868 36.0103 9.85777 36.0479 9.85181C36.0855 9.84614 36.1188 9.82539 36.1408 9.79419L37.1901 8.3087C37.2332 8.2475 37.2215 8.16317 37.1634 8.11645C35.9643 7.15026 34.6142 6.68051 33.036 6.68051C30.7156 6.68051 29.0947 8.07898 29.0947 10.0799C29.0947 12.2256 30.4929 12.9853 32.9091 13.5718C34.9655 14.0475 35.3126 14.4461 35.3126 15.1585C35.3126 15.948 34.6108 16.4387 33.4813 16.4387C32.2269 16.4387 31.2037 16.0144 30.059 15.0189C30.0307 14.9943 29.9917 14.9831 29.9558 14.9852C29.9179 14.9883 29.8832 15.0059 29.8591 15.0351L28.6826 16.4413C28.6332 16.4996 28.6395 16.5868 28.6966 16.6373C30.0283 17.8312 31.6662 18.4619 33.4338 18.4619C35.9342 18.4619 37.55 17.0898 37.55 14.9662C37.5544 13.1736 36.4858 12.181 33.8684 11.5415L33.8639 11.5396ZM43.2069 9.41102C42.1231 9.41102 41.2341 9.83972 40.501 10.7181V9.7294C40.501 9.65134 40.438 9.58775 40.3604 9.58775H38.4361C38.3584 9.58775 38.2955 9.65134 38.2955 9.7294V20.7156C38.2955 20.7937 38.3584 20.8573 38.4361 20.8573H40.3604C40.438 20.8573 40.501 20.7937 40.501 20.7156V17.2477C41.2342 18.0741 42.1234 18.4779 43.2069 18.4779C45.2207 18.4779 47.2593 16.921 47.2593 13.945C47.2623 10.9682 45.2231 9.41088 43.2091 9.41088L43.2069 9.41102ZM45.0217 13.945C45.0217 15.4605 44.0921 16.518 42.7611 16.518C41.4453 16.518 40.4527 15.4124 40.4527 13.945C40.4527 12.4777 41.4453 11.3719 42.7611 11.3719C44.0706 11.3718 45.0217 12.4538 45.0217 13.945ZM52.4845 9.41102C49.891 9.41102 47.8592 11.4166 47.8592 13.9773C47.8592 16.5102 49.8771 18.4947 52.4527 18.4947C55.0554 18.4947 57.0934 16.4959 57.0934 13.945C57.0934 11.4028 55.0692 9.41102 52.4845 9.41102ZM52.4845 16.5331C51.105 16.5331 50.0651 15.42 50.0651 13.9442C50.0651 12.4622 51.0691 11.3867 52.4527 11.3867C53.8411 11.3867 54.888 12.4998 54.888 13.9766C54.888 15.4584 53.8772 16.5331 52.4845 16.5331ZM62.6316 9.58776H60.514V7.41356C60.514 7.33564 60.4513 7.27206 60.3736 7.27206H58.4495C58.3717 7.27206 58.3085 7.33564 58.3085 7.41356V9.58776H57.3833C57.3058 9.58776 57.2431 9.65134 57.2431 9.72941V11.3903C57.2431 11.4682 57.3058 11.5319 57.3833 11.5319H58.3085V15.8294C58.3085 17.5661 59.1692 18.4467 60.8668 18.4467C61.557 18.4467 62.1297 18.3035 62.6694 17.9962C62.7132 17.9715 62.7404 17.9241 62.7404 17.8736V16.292C62.7404 16.2432 62.7151 16.1971 62.6735 16.1716C62.6316 16.1451 62.5794 16.1438 62.5365 16.1651C62.1658 16.3525 61.8074 16.4389 61.4069 16.4389C60.7895 16.4389 60.514 16.1574 60.514 15.5264V11.5327H62.6316C62.7093 11.5327 62.7719 11.4691 62.7719 11.391V9.73032C62.7749 9.65226 62.7125 9.58867 62.6337 9.58867L62.6316 9.58776ZM70.0097 9.59627V9.32923C70.0097 8.54364 70.3096 8.19332 70.9824 8.19332C71.3835 8.19332 71.7058 8.27332 72.0666 8.39423C72.1111 8.40827 72.1574 8.40125 72.1936 8.37452C72.2307 8.3478 72.2517 8.30497 72.2517 8.25959V6.6311C72.2517 6.56885 72.2118 6.51378 72.1521 6.49542C71.7708 6.38152 71.283 6.26465 70.5527 6.26465C68.7753 6.26465 67.8358 7.26981 67.8358 9.1704V9.57939H66.9113C66.8337 9.57939 66.7701 9.64298 66.7701 9.72089V11.3903C66.7701 11.4682 66.8337 11.5319 66.9113 11.5319H67.8358V18.1607C67.8358 18.2387 67.8985 18.3023 67.9761 18.3023H69.9005C69.9782 18.3023 70.0415 18.2387 70.0415 18.1607V11.5324H71.8382L74.5904 18.1595C74.278 18.8558 73.9707 18.9943 73.5513 18.9943C73.2123 18.9943 72.8553 18.8927 72.4902 18.692C72.4559 18.6731 72.4152 18.67 72.3782 18.6815C72.3414 18.6944 72.3105 18.7219 72.2949 18.7577L71.6427 20.1947C71.6117 20.2626 71.6383 20.3423 71.7034 20.3776C72.3843 20.7479 72.9989 20.9059 73.7585 20.9059C75.1794 20.9059 75.9648 20.2413 76.6571 18.4531L79.9956 9.78971C80.0124 9.74612 80.0073 9.69686 79.9807 9.65821C79.9543 9.61984 79.9116 9.59671 79.8649 9.59671H77.8616C77.8016 9.59671 77.7479 9.63507 77.7283 9.69164L75.6762 15.5784L73.4284 9.68776C73.4079 9.63298 73.3553 9.5967 73.297 9.5967L70.0097 9.59627ZM65.7321 9.58776H63.8077C63.73 9.58776 63.6667 9.65134 63.6667 9.72941V18.1607C63.6667 18.2387 63.73 18.3023 63.8077 18.3023H65.7321C65.8097 18.3023 65.8731 18.2387 65.8731 18.1607V9.73C65.8732 9.71137 65.8695 9.69292 65.8624 9.67571C65.8554 9.65849 65.845 9.64285 65.8318 9.62969C65.8187 9.61653 65.8031 9.6061 65.786 9.599C65.7688 9.59191 65.7506 9.5877 65.7321 9.58776ZM64.7808 5.74881C64.0185 5.74881 63.3999 6.36855 63.3999 7.13414C63.3999 7.90017 64.0186 8.52067 64.7808 8.52067C65.5429 8.52067 66.1609 7.90017 66.1609 7.13414C66.1609 6.3687 65.5426 5.74881 64.7816 5.74881H64.7808ZM81.6387 12.2986C80.8771 12.2986 80.2845 11.6843 80.2845 10.9385C80.2845 10.1926 80.8848 9.57134 81.6458 9.57134C82.4074 9.57134 83 10.1854 83 10.9307C83 11.6766 82.3997 12.2986 81.6387 12.2986ZM81.6461 9.70657C80.9524 9.70657 80.4276 10.2603 80.4276 10.9385C80.4276 11.6163 80.9487 12.1626 81.6391 12.1626C82.3326 12.1626 82.8581 11.6093 82.8581 10.9307C82.8581 10.2529 82.3358 9.70657 81.6461 9.70657ZM81.9464 11.0705L82.3294 11.6091H82.0064L81.6616 11.115H81.3651V11.6091H81.0947V10.1815H81.7286C82.0589 10.1815 82.276 10.3512 82.276 10.6369C82.2775 10.871 82.1423 11.014 81.9476 11.0706L81.9464 11.0705ZM81.7175 10.4265H81.3649V10.878H81.7175C81.8934 10.878 81.9985 10.7916 81.9985 10.652C81.9985 10.5051 81.8929 10.4265 81.7175 10.4265Z" fill="white"/>
</svg>

<svg width="83" height="25" fill="none" xmlns="http://www.w3.org/2000/svg"><path d="M12.447 0C5.573 0 0 5.596 0 12.5S5.573 25 12.447 25c6.874 0 12.447-5.596 12.447-12.5 0-6.903-5.572-12.5-12.447-12.5zm5.708 18.028a.774.774 0 01-1.067.26c-2.923-1.794-6.602-2.2-10.934-1.206a.775.775 0 01-.929-.586.778.778 0 01.584-.932c4.74-1.089 8.808-.62 12.089 1.393a.78.78 0 01.257 1.071zm1.523-3.403a.968.968 0 01-1.334.321c-3.345-2.065-8.446-2.663-12.403-1.457a.971.971 0 01-1.211-.649.977.977 0 01.647-1.215c4.52-1.378 10.14-.71 13.982 1.66.456.283.6.883.32 1.34zm.131-3.544C15.797 8.688 9.18 8.468 5.35 9.636a1.163 1.163 0 01-1.452-.78 1.17 1.17 0 01.776-1.458C9.07 6.058 16.38 6.317 20.997 9.07c.554.33.735 1.047.407 1.602a1.16 1.16 0 01-1.595.409zm14.055.459c-2.15-.515-2.532-.876-2.532-1.635 0-.717.672-1.2 1.672-1.2.97 0 1.93.366 2.938 1.12a.14.14 0 00.106.027.139.139 0 00.093-.058l1.05-1.485a.142.142 0 00-.028-.193c-1.199-.966-2.549-1.435-4.127-1.435-2.32 0-3.941 1.398-3.941 3.399 0 2.146 1.398 2.905 3.814 3.492 2.056.476 2.404.874 2.404 1.587 0 .789-.702 1.28-1.832 1.28-1.254 0-2.277-.425-3.422-1.42a.147.147 0 00-.103-.034.14.14 0 00-.097.05l-1.176 1.406a.14.14 0 00.014.196c1.331 1.194 2.97 1.825 4.737 1.825 2.5 0 4.116-1.372 4.116-3.496.004-1.792-1.064-2.785-3.682-3.425l-.004-.001zm9.343-2.129c-1.084 0-1.973.429-2.706 1.307V9.73a.141.141 0 00-.14-.141h-1.925a.141.141 0 00-.14.141v10.987c0 .078.062.141.14.141h1.924c.078 0 .141-.063.141-.141v-3.468c.733.826 1.622 1.23 2.706 1.23 2.014 0 4.052-1.557 4.052-4.533.003-2.977-2.036-4.534-4.05-4.534h-.002zm1.815 4.534c0 1.515-.93 2.573-2.26 2.573-1.317 0-2.31-1.106-2.31-2.573 0-1.467.993-2.573 2.31-2.573 1.309 0 2.26 1.082 2.26 2.573zm7.462-4.534c-2.593 0-4.625 2.006-4.625 4.566 0 2.533 2.018 4.518 4.594 4.518 2.602 0 4.64-2 4.64-4.55 0-2.542-2.024-4.534-4.609-4.534zm0 7.122c-1.379 0-2.419-1.113-2.419-2.589 0-1.482 1.004-2.557 2.388-2.557 1.388 0 2.435 1.113 2.435 2.59 0 1.481-1.01 2.556-2.404 2.556zm10.148-6.945h-2.118V7.414a.141.141 0 00-.14-.142h-1.925a.141.141 0 00-.14.142v2.174h-.926a.141.141 0 00-.14.141v1.661c0 .078.063.142.14.142h.925v4.297c0 1.737.861 2.618 2.559 2.618.69 0 1.263-.143 1.802-.45a.141.141 0 00.071-.123v-1.582a.142.142 0 00-.204-.127c-.37.188-.729.274-1.13.274-.617 0-.892-.282-.892-.913v-3.993h2.118c.077 0 .14-.064.14-.142v-1.66a.137.137 0 00-.138-.142l-.002-.001zm7.378.008V9.33c0-.785.3-1.136.972-1.136.401 0 .724.08 1.085.201a.14.14 0 00.185-.134V6.63a.141.141 0 00-.1-.136 5.261 5.261 0 00-1.6-.23c-1.777 0-2.716 1.005-2.716 2.905v.41h-.925a.142.142 0 00-.14.14v1.67c0 .078.063.142.14.142h.925v6.629c0 .078.063.141.14.141H69.9a.142.142 0 00.141-.141v-6.629h1.797l2.752 6.628c-.312.696-.62.834-1.039.834-.339 0-.696-.101-1.06-.302a.144.144 0 00-.113-.01.142.142 0 00-.083.076l-.652 1.437a.141.141 0 00.06.183c.681.37 1.296.528 2.055.528 1.421 0 2.207-.665 2.9-2.453l3.338-8.663a.142.142 0 00-.131-.193h-2.003a.141.141 0 00-.134.095l-2.052 5.886-2.248-5.89a.14.14 0 00-.131-.091H70.01zm-4.278-.008h-1.924a.142.142 0 00-.141.141v8.432c0 .078.063.141.14.141h1.925a.142.142 0 00.141-.141V9.73a.14.14 0 00-.087-.131.14.14 0 00-.054-.011zm-.951-3.84c-.763 0-1.381.62-1.381 1.386 0 .766.619 1.387 1.38 1.387.763 0 1.38-.62 1.38-1.387 0-.765-.617-1.385-1.378-1.385h-.001zm16.858 6.55a1.352 1.352 0 01-1.355-1.36c0-.745.6-1.367 1.362-1.367.761 0 1.354.614 1.354 1.36 0 .746-.6 1.368-1.361 1.368zm.007-2.591c-.694 0-1.218.553-1.218 1.231s.52 1.225 1.211 1.225c.694 0 1.22-.554 1.22-1.232 0-.678-.523-1.224-1.213-1.224zm.3 1.363l.383.54h-.323l-.344-.495h-.297v.494h-.27v-1.428h.634c.33 0 .547.17.547.456.002.234-.134.377-.328.434h-.002zm-.228-.643h-.353v.451h.353c.175 0 .28-.086.28-.226 0-.147-.105-.225-.28-.225z" fill="#fff"/></svg>
